X:277
T:B277-  The Leather Bottle
Q:1/4=120
L:1/4
M:6/4
K:Bphrygian
B|B2Be2e|dc2B2B|B2BA2A|d2cB2B|\
c2de2e|dc2B2B|A2A(B3/2B/)c|d2cB2B|\
B2BA2A|B2BG2G|B2BA2A|d2cB2B/B/|\
B2BA2A|B2BG2G|d2dg2d|d3/2 e/dB2|]

